X: 232	% 63
T: Moon Winks
S: Viola Ruth "Pioneer Western Folk Tunes" 1948 p.23 #2
R: three-step
Q: "Straight slow even 3 beats"
O: As used for Three-step
Z: 2019 John Chambers <jc:trillian.mit.edu>
M: 3/4
L: 1/8
K: C
V: 1 name="63"
[|\
KG2 A2 c2 | KB6 | KG2 A2 B2 | KA6 |\
KG2 F3 E | KA2 D4 | KG2 D4 | KE2 C4 ||
Kee Kdd Kcc | Kc2 B4 | KA2 B3 A | KA2 G4 |\
Ke2 f2 e2 | Kd2 A4 | Kd2 A2 B2 | Kc6 |]
